X:0880
T:Afton Water.
M:3/4
L:1/8
Q:1/4=90 "Slow"
I: :: :|
Z:Jack Campin * www.campin.me.uk * 2009
K:G
D2| G2  B2   AG | AB  c2  BA |G2 B2  AG |({G}F4)
D2| G2  B2   AG | AB  c2 (ge)|d2 cB  AB |    G4   :|
de|=f2 (gf) (ed)| d2  e2  g2 |g2 B2 (AG)|   (G2 F2)
D2| G2  B2   AG |(AB) d2 (ge)|d2 cB  AB |    G4   :|

